X:1481
T:Flatworld
C:Andy Cutting
G:Waltz
M:3/4
L:1/8
E:12
K:Em
|:BAB|"Em"GB FB EB|"C"C2 EF GE|c2 cB AG|"Bm"F3 BAB|\
"Em"GB FB EB|"C"C2 EF GE|cB AG "D"FB|1 "Em"E3 BAB:|2 "Em"E3 EED|\
"Em"EF GE ed|"C"c2 cB AG|"D"FG AD dc|"G"B2 BA GF|\
"C"EF GC cB|"D"A2 AG FE|1 "Bm"F2 FA GA|F4 GF:|2 "Bm"F2 FA GF|"Em"E3:|**
